X:1
T:James Gibb editions
T:Vive la serpe - Sermisy
T:#
%%score [ 1 2 3 4 ]
L:1/8
Q:1/4=120
M:4/4
K:C
V:1 treble nm="Soprano" snm="S"
V:2 treble nm="Alto" snm="A"
V:3 treble-8 nm="Tenor" snm="T"
V:4 bass nm="Bass" snm="B"
V:1
"^Vive la serpe""^Claudin de Sermisy\n(1490-1562)" z8 | g4 g2 a2- | a2 g2 f2 g2 | z2 e2 e2 f2 | %4
w: |Ser- pe~~et la|* ser- pet- te,|Le ser- pier|
 (g3 f e2) (d2- |[M:4/4] dc) c4 B2 | c8 | z4 z2 g2 | g2 g2 e2 g2 | f2 d2 (e4 | f4) e2 g2 | %11
w: et * * le|* * ser- pil-|lon.|La|ser- pe tail- le|la vi- gnet\-|* te, Vi-|
 g2 f2 e4 | d2 z2 z4 | z2 d2 f2 f2 | (edef g2) g2 | f2 d2 (e2 f2- | fe e4 d2) | e2 e2 e2 c2 | g8- | %19
w: ve la ser-|pe.|Vou- lez vous|cho\- * * * * se|plus bon- ne\- *||ste Pour ven- den-|ger|
 g4 z2 (g2- | gfed c2) (d2- | dc c4) B2 | c2 g2 g2 f2 | e4 d2 z2 | z8 | z2 e2 e2 f2 | %26
w: * le|* * * * * gra\-|* * * pil-|lon? Vi- ve la|ser- pe,||Le ser- pier|
 (g3 f e2) (d2- | dc) c4 B2 | c4 z4 | g4 g2 a2- | a2 g2 f2 g2 | z2 e2 e2 f2 | %32
w: et * * le|* * ser- pil-|lon,|Ser- pe~et la|* ser- pet- te,|Le ser- pier|
[Q:1/4=118] (g3[Q:1/4=115] f[Q:1/4=114] e2)[Q:1/4=111] d2- | %33
w: et * * le|
[Q:1/4=109] d2[Q:1/4=106] c4[Q:1/4=103] B2 |[Q:1/4=102] c16 |] %35
w: * ser- pil-|lon.|
V:2
 z8 | c4 B2 c2- | c2 B2 A2 G2 | z2 c2 c2 d2 | (e3 d c2) B2 |[M:4/4] A2 F2 G2 G2 | G2 G2 (EFGE | %7
w: |Ser- pe~~et la|* ser- pet- te,|Le ser- pier|et * * le|ser- pil- lon. La|ser- pe tail\- * * *|
 F2) E2 (CDEF | G2) C2 (c4 | A3 Bcd c2- | c2 B2) c2 c2 | B2 A2 c4 | B2 z2 z4 | z2 B2 A2 F2 | %14
w: * le la * * *|* vi- gnet\-||* * te, Vi-|ve la ser-|pe.|Vou- lez vous|
 A2 A2 (GABc | d4) c2 (d2- | dB c2 A4- | A4 G4 | z2 E2 E2 C2 | G4 E2 E2 | C2 G4 G2 | G2 A2 G4 | %22
w: cho- se plus * * *|* bon- ne\-||* ste|Pour ven- den-|ger, Pour ven-|den- ger le|gra- pil- lon?|
 z2 c2 B2 A2 | c4 B2 z2 | z8 | z2 c2 c2 d2 | e3 d c2) B2 | (A2 F2) G4 | E4 z4 | c4 B2 c2- | %30
w: Vi- ve la|ser- pe,||Le ser- pier|et * * le|ser\- * pil-|lon,|Ser- pe~et la|
 c2 B2 A2 G2 | z2 c2 c2 d2 | (e3 d c2) B2 | (A2 F2) G4 | E16 |] %35
w: * ser- pet- te,|Le ser- pier|et\- * * le|ser\- * pil-|lon.|
V:3
 z2 G2 G2 F2 | E4 D2 z2 | z4 z2 E2 | F2 G2 (A3 G/F/ | EDEF G2) G2 |[M:4/4][K:treble-8] (FEDC) D4 | %6
w: Vi- ve la|ser- pe,|Le|ser- pier et * *|* * * * * le|ser\- * * * pil-|
 C4 z4 | z2 G2 G2 G2 | (EDEF G2) E2 | F2 A4 (G2- | G2 F2) G4 | z4 G4 | G2 A4 G2 | F2 G2 z2 A2 | %14
w: lon.|La ser- pe|tail\- * * * * le|la vi- gnet\-|* * te,|ser-|pe~et la ser-|pet- te. Vou-|
 c2 c2 B2 (AG) | A2 A2 (G2 A2- | AGFE F4) | E4 z2 E2 | E2 C2 G4 | z2 E2 E2 C2 | (G3 F E2) C2 | %21
w: lez vous cho- se *|plus bon- ne\- *||ste Pour|ven- den- ger,|Pour ven~den- *|ger * * le|
 (E2 F2) D4 | C4 z4 | G4 G2 A2- | A2 G2 F2 G2 | z2 G2 A2 F2 | (EDEF G2) G2 | (FEDC D2) D2 | %28
w: gra\- * pil-|lon?|Ser- pe~et la|* ser- pet- te,|Le ser- pier|et * * * * le|ser\- * * * * pil-|
 C2 G2 G2 F2 | E4 D2 z2 | z4 z2 E2 | F2 G2 (A3 G/F/ | EDEF G2) G2 | (FEDC D2) D2 | C16 |] %35
w: lon, Vi- ve la|ser- pe,|Le|ser- pier et * *|* * * * * le|ser\- * * * * pil-|lon.|
V:4
 z2 C,2 B,,2 A,,2 | C,4 G,,2 z2 | z8 | z2 C,2 A,,2 D,2 | C,6 G,,2 |[M:4/4] A,,2 A,,2 G,,4 | %6
w: Vi- ve la|ser- pe,||Le ser- pier|et le|ser- pil- lon.|
 z2 C,2 C,2 C,2 | (A,,B,,C,D, E,2) C,2 | C,6 C,2 | D,2 (F,2 E,3 D,/C,/ | D,4) C,4 | z4 C,4 | %12
w: La ser- pe|tail\- * * * * le|la vi-|gnet\- * * * *|* te,|ser-|
 G,,2 C,4 B,,2 | A,,2 G,,2 z2 D,2 | C,2 A,,2 E,2 E,2 | D,2 F,2 (E,2 D,2- | D,2 C,2 D,4 | %17
w: pe~et la ser-|pet- te. Vou-|lez vous cho- se|plus bon- ne\- *||
 A,,3 B,,) C,4- | C,4 z2 E,2 | E,2 C,2 (G,3 F, | E,D, C,4) G,,2 | (C,2 F,,2) G,,4 | C,4 z4 | %23
w: * * ste|* Pour|ven- den- ger *|* * * le|gra\- * pil-|lon?|
 C,4 G,,2 C,2- | C,2 B,,2 A,,2 G,,2 | z2 C,2 A,,2 D,2 | C,6 G,,2 | A,,2 A,,2 G,,4 | %28
w: Ser- pe~et la|* ser- pet- te,|Le ser- pier|et le|ser- pil- lon,|
 z2 C,2 B,,2 A,,2 | C,4 G,,2 z2 | z8 | z2 C,2 A,,2 D,2 | C,6 G,,2 | A,,2 (A,,2 G,,4) | C,16 |] %35
w: Vi- ve la|ser- pe,||Le ser- pier|et le|ser- pil\- *|lon.|

